X: 33599
T: Rakes Of Sollohod, The
R: slip jig
M: 9/8
K: Gmajor
|:d2c A2G F2D|D2G G2A B2c|d2c A2G F2D|1 G2B A2F G2B:|2 G2B A2F G2A||
|:G2B d2B c2A|G2B d2c B3|1 G2B d2B c2A|G2F G2A B3:|2 def g2e d2B|A2G A2B c2e||

